X:113
T: Tod der Geschwister
N: Q3107E
O: Nord - Amerika, USA
N: Melodievergleich zu Q0107B, anderes Lied.
R: Ballade, ??
M: 3/4
L: 1/8
K: G
G2 | B4B2 | G4G2 | c2c2d2 | B4
d2 | f2e2c2 | e2d2GA | B2BGA2 | G4

@@@ Tune index: 1406
